packages/icons/src/arrow-down-line.svg

<svg width="24" height="24" viewBox="0 0 24 24" fill="none" xmlns="http://www.w3.org/2000/svg">
<path fill-rule="evenodd" clip-rule="evenodd" d="M4 17V20H20V17H22V20C22 21.0544 21.1841 21.9182 20.1493 21.9945L20 22H4C2.94564 22 2.08183 21.1841 2.00549 20.1493L2 20V17H4ZM13 3V13.17L15.5355 10.636L16.9497 12.0503L12 17L7.05025 12.0503L8.46447 10.636L11 13.172V3H13Z" fill="black"/>
</svg>

<svg xmlns="http://www.w3.org/2000/svg" width="24" height="24" fill="none" viewBox="0 0 24 24">
  <path fill="#000" fill-rule="evenodd" d="M4 17v3h16v-3h2v3a2 2 0 0 1-1.85 1.994L20 22H4a2 2 0 0 1-1.995-1.85L2 20v-3h2Zm9-14v10.17l2.536-2.534 1.414 1.414L12 17l-4.95-4.95 1.414-1.414L11 13.172V3h2Z" clip-rule="evenodd"/>
</svg>
